src/assets/gameboyBg.svg

<svg width="681" height="385" viewBox="0 0 681 385" fill="none" xmlns="http://www.w3.org/2000/svg">
<g clip-path="url(#clip0_7_22)">
<path d="M588.8 198.9C586.5 154.5 582.4 110.1 578.5 65.9C575.1 30 546.4 3.2 511.6 2.3C495.7 1.9 479.9 1.5 464 1.2H218C202 1.5 185.9 1.8 169.9 2.2C166.4 2.3 162.9 2.4 159.4 3.1C126.2 9.6 103.8 36.2 101.3 71C98.7 106.4 95.5 141.7 93 177.1C89.9 220.6 88.7 264.1 92.7 307.6C93.5 316.6 94.6 325.6 96.1 334.4C99.3 354.4 112.7 366.7 128.8 376.5C130.2 377.3 131.6 378.2 133 378.9H548.5C554.2 375.2 559.7 371.1 565 366.7C575.7 357.6 583 346.4 584.8 332.1C586.8 316.6 588.8 301.1 589.5 285.5C590.7 256.6 590.3 227.8 588.8 198.9ZM534.4 293.2C534.4 300.8 534.4 300.8 526.8 300.8H149.5C141.4 300.8 141.4 300.8 141.4 292.5V50.5C141.4 38.5 141.4 38.5 153.6 38.5H337.9C401 38.5 464.1 38.5 527.2 38.4C534.5 38.4 534.5 38.4 534.5 45.7V293.2H534.4Z" fill="#010102"/>
<path d="M42.2 100C46.1 99.8 49.6 100.4 53.2 101.1C55.2 101.4 56 102.4 56.1 104.5C56.3 111.7 56.8 119 56.5 126.2C56.4 128.6 57.3 129.2 59.6 129.2C66.8 129.1 74.1 129.1 81.3 129.6C82.9 129.7 83.9 130.1 84.3 131.8C86.2 139.2 85.7 146.5 84 153.8C83.7 155.3 82.5 155.6 81.2 155.6C74 155.3 66.7 156.1 59.5 156.1C57.2 156.1 56.6 156.9 56.4 159.2C55.8 166.3 56.4 173.5 55.5 180.6C55.4 181.8 55.2 182.8 53.9 183.3C46.9 186.3 39.9 186.8 32.8 183.8C30.9 183 30.1 181.8 30.1 179.8C30 172.9 29.7 166 29.6 159.2C29.6 156.8 28.9 155.7 26.3 155.7C19.5 155.9 12.7 155.6 5.89997 155.2C3.99997 155.1 2.79997 154.5 2.09997 152.7C-0.20003 146.3 -0.90003 139.9 1.69997 133.4C2.39997 131.5 3.39997 130.3 5.69997 130.2C12.6 130 19.4 129.5 26.3 129.4C28.7 129.3 29.6 128.6 29.5 126.1C29.4 119.3 29.5 112.5 29.6 105.7C29.6 102 30 101.5 33.7 100.8C36.6 100.1 39.5 99.7 42.2 100Z" fill="#83868C"/>
<path d="M628 158.14C636.3 158.14 643 164.64 643.1 172.94C643.2 181.14 636.4 187.84 628.3 187.84C619.8 187.84 613.1 181.24 613.1 172.74C613 164.74 619.7 158.14 628 158.14Z" fill="#83868C"/>
<path d="M665.8 157.8C657.5 157.8 650.8 151.2 650.8 143C650.8 134.7 657.4 128.1 665.7 128.1C674.1 128.1 680.8 134.8 680.8 143C680.6 151.1 673.8 157.8 665.8 157.8Z" fill="#83868C"/>
<path d="M77.8 257.3C82.2 257.2 85.4 260.3 85.5 264.6C85.5 268.8 82.4 272.1 78.3 272.1C73.9 272.1 70.6 269.1 70.6 264.9C70.4 260.5 73.4 257.3 77.8 257.3Z" fill="#83868C"/>
<path d="M77.9 276.8C82.6 277 85.6 280 85.5 284.3C85.4 288.3 81.8 291.8 77.9 291.6C73.8 291.5 70.4 287.8 70.6 283.5C70.7 279.5 73.7 276.7 77.9 276.8Z" fill="#83868C"/>
<path d="M340.2 373.3C226.8 373.3 134.7 375.7 132.8 378.7H132.9C133 378.8 133.2 378.8 133.3 378.9C133.9 379.1 134.5 379.3 135.1 379.5C150.4 382.1 236.4 384.2 340.1 384.2C454.7 384.2 547.5 381.7 547.5 378.7C547.5 375.7 454.8 373.3 340.2 373.3Z" fill="#010102"/>
<path d="M193.317 333.822V325.095H194.374V332.884H198.431V333.822H193.317ZM202.59 333.958C201.999 333.958 201.481 333.818 201.035 333.536C200.591 333.255 200.245 332.862 199.995 332.356C199.748 331.85 199.624 331.259 199.624 330.583C199.624 329.901 199.748 329.306 199.995 328.798C200.245 328.289 200.591 327.894 201.035 327.613C201.481 327.332 201.999 327.191 202.59 327.191C203.181 327.191 203.698 327.332 204.141 327.613C204.587 327.894 204.934 328.289 205.181 328.798C205.431 329.306 205.556 329.901 205.556 330.583C205.556 331.259 205.431 331.85 205.181 332.356C204.934 332.862 204.587 333.255 204.141 333.536C203.698 333.818 203.181 333.958 202.59 333.958ZM202.59 333.055C203.039 333.055 203.408 332.94 203.698 332.71C203.988 332.479 204.202 332.177 204.341 331.802C204.481 331.427 204.55 331.021 204.55 330.583C204.55 330.146 204.481 329.738 204.341 329.36C204.202 328.982 203.988 328.677 203.698 328.444C203.408 328.211 203.039 328.095 202.59 328.095C202.141 328.095 201.772 328.211 201.482 328.444C201.192 328.677 200.978 328.982 200.839 329.36C200.699 329.738 200.63 330.146 200.63 330.583C200.63 331.021 200.699 331.427 200.839 331.802C200.978 332.177 201.192 332.479 201.482 332.71C201.772 332.94 202.141 333.055 202.59 333.055ZM207.091 333.822V327.276H208.063V328.265H208.131C208.25 327.941 208.466 327.678 208.779 327.477C209.091 327.275 209.443 327.174 209.835 327.174C209.909 327.174 210.002 327.176 210.112 327.178C210.223 327.181 210.307 327.185 210.364 327.191V328.214C210.33 328.205 210.252 328.193 210.129 328.176C210.01 328.156 209.884 328.146 209.75 328.146C209.432 328.146 209.148 328.212 208.898 328.346C208.651 328.477 208.455 328.658 208.31 328.891C208.168 329.122 208.097 329.384 208.097 329.68V333.822H207.091ZM214.101 333.958C213.47 333.958 212.926 333.819 212.469 333.541C212.014 333.259 211.663 332.867 211.416 332.364C211.172 331.859 211.05 331.271 211.05 330.6C211.05 329.93 211.172 329.339 211.416 328.827C211.663 328.313 212.007 327.913 212.448 327.626C212.891 327.336 213.408 327.191 213.999 327.191C214.34 327.191 214.676 327.248 215.009 327.362C215.341 327.475 215.644 327.66 215.916 327.916C216.189 328.168 216.406 328.504 216.568 328.921C216.73 329.339 216.811 329.853 216.811 330.464V330.89H211.766V330.021H215.788C215.788 329.651 215.715 329.322 215.567 329.032C215.422 328.742 215.215 328.514 214.945 328.346C214.678 328.178 214.362 328.095 213.999 328.095C213.598 328.095 213.252 328.194 212.959 328.393C212.669 328.589 212.446 328.845 212.29 329.16C212.134 329.475 212.056 329.813 212.056 330.174V330.754C212.056 331.248 212.141 331.667 212.311 332.011C212.484 332.352 212.725 332.612 213.031 332.791C213.338 332.967 213.695 333.055 214.101 333.055C214.365 333.055 214.604 333.018 214.817 332.944C215.033 332.867 215.219 332.754 215.375 332.603C215.531 332.45 215.652 332.259 215.737 332.032L216.709 332.305C216.607 332.634 216.435 332.924 216.193 333.174C215.952 333.421 215.654 333.614 215.298 333.754C214.943 333.89 214.544 333.958 214.101 333.958ZM218.341 333.822V327.276H219.313V328.299H219.398C219.534 327.95 219.754 327.678 220.058 327.485C220.362 327.289 220.727 327.191 221.154 327.191C221.585 327.191 221.945 327.289 222.232 327.485C222.521 327.678 222.747 327.95 222.909 328.299H222.977C223.145 327.961 223.396 327.693 223.732 327.494C224.067 327.292 224.469 327.191 224.938 327.191C225.523 327.191 226.002 327.374 226.374 327.741C226.746 328.104 226.932 328.671 226.932 329.441V333.822H225.926V329.441C225.926 328.958 225.794 328.613 225.53 328.406C225.266 328.198 224.955 328.095 224.597 328.095C224.136 328.095 223.78 328.234 223.527 328.512C223.274 328.788 223.148 329.137 223.148 329.56V333.822H222.125V329.339C222.125 328.967 222.004 328.667 221.763 328.44C221.521 328.21 221.21 328.095 220.83 328.095C220.568 328.095 220.324 328.164 220.097 328.303C219.872 328.443 219.69 328.636 219.551 328.883C219.415 329.127 219.347 329.41 219.347 329.731V333.822H218.341ZM232.146 333.822V327.276H233.151V333.822H232.146ZM232.657 326.185C232.461 326.185 232.292 326.119 232.15 325.985C232.011 325.852 231.941 325.691 231.941 325.504C231.941 325.316 232.011 325.156 232.15 325.022C232.292 324.889 232.461 324.822 232.657 324.822C232.853 324.822 233.021 324.889 233.16 325.022C233.302 325.156 233.373 325.316 233.373 325.504C233.373 325.691 233.302 325.852 233.16 325.985C233.021 326.119 232.853 326.185 232.657 326.185ZM234.993 336.276V327.276H235.965V328.316H236.084C236.158 328.202 236.26 328.058 236.391 327.881C236.525 327.702 236.715 327.543 236.962 327.404C237.212 327.262 237.55 327.191 237.976 327.191C238.527 327.191 239.013 327.329 239.434 327.604C239.854 327.88 240.182 328.271 240.418 328.776C240.654 329.282 240.772 329.879 240.772 330.566C240.772 331.259 240.654 331.86 240.418 332.369C240.182 332.874 239.856 333.266 239.438 333.545C239.02 333.82 238.539 333.958 237.993 333.958C237.573 333.958 237.236 333.889 236.983 333.749C236.731 333.607 236.536 333.447 236.4 333.268C236.263 333.086 236.158 332.935 236.084 332.816H235.999V336.276H234.993ZM235.982 330.549C235.982 331.043 236.054 331.479 236.199 331.857C236.344 332.232 236.556 332.526 236.834 332.739C237.113 332.95 237.454 333.055 237.857 333.055C238.277 333.055 238.628 332.944 238.91 332.722C239.194 332.498 239.407 332.197 239.549 331.819C239.694 331.438 239.766 331.015 239.766 330.549C239.766 330.089 239.695 329.674 239.553 329.305C239.414 328.933 239.202 328.639 238.918 328.423C238.637 328.204 238.283 328.095 237.857 328.095C237.448 328.095 237.104 328.198 236.826 328.406C236.547 328.61 236.337 328.897 236.195 329.266C236.053 329.633 235.982 330.06 235.982 330.549ZM246.942 328.742L246.039 328.998C245.982 328.847 245.898 328.701 245.787 328.559C245.679 328.414 245.532 328.295 245.344 328.201C245.157 328.107 244.917 328.06 244.624 328.06C244.223 328.06 243.89 328.153 243.623 328.337C243.358 328.519 243.226 328.751 243.226 329.032C243.226 329.282 243.317 329.479 243.499 329.624C243.681 329.769 243.965 329.89 244.351 329.987L245.323 330.225C245.908 330.367 246.344 330.585 246.631 330.877C246.918 331.167 247.062 331.541 247.062 331.998C247.062 332.373 246.954 332.708 246.738 333.004C246.525 333.299 246.226 333.532 245.843 333.702C245.459 333.873 245.013 333.958 244.505 333.958C243.837 333.958 243.285 333.813 242.847 333.524C242.41 333.234 242.133 332.81 242.016 332.254L242.971 332.015C243.062 332.367 243.233 332.631 243.486 332.808C243.742 332.984 244.076 333.072 244.488 333.072C244.956 333.072 245.329 332.972 245.604 332.774C245.883 332.572 246.022 332.33 246.022 332.049C246.022 331.822 245.942 331.631 245.783 331.478C245.624 331.322 245.38 331.205 245.05 331.129L243.959 330.873C243.36 330.731 242.919 330.511 242.638 330.212C242.36 329.911 242.221 329.535 242.221 329.083C242.221 328.714 242.324 328.387 242.532 328.103C242.742 327.819 243.027 327.596 243.388 327.434C243.752 327.272 244.164 327.191 244.624 327.191C245.272 327.191 245.78 327.333 246.15 327.617C246.522 327.901 246.786 328.276 246.942 328.742ZM252.7 331.146V327.276H253.706V333.822H252.7V332.714H252.632C252.479 333.046 252.24 333.329 251.916 333.562C251.592 333.792 251.183 333.907 250.689 333.907C250.28 333.907 249.916 333.818 249.598 333.639C249.28 333.457 249.03 333.184 248.848 332.82C248.666 332.454 248.575 331.992 248.575 331.435V327.276H249.581V331.367C249.581 331.845 249.715 332.225 249.982 332.509C250.252 332.793 250.595 332.935 251.013 332.935C251.263 332.935 251.517 332.872 251.776 332.744C252.037 332.616 252.256 332.42 252.432 332.156C252.611 331.891 252.7 331.555 252.7 331.146ZM255.548 333.822V327.276H256.52V328.299H256.605C256.741 327.95 256.961 327.678 257.265 327.485C257.569 327.289 257.934 327.191 258.361 327.191C258.792 327.191 259.152 327.289 259.439 327.485C259.728 327.678 259.954 327.95 260.116 328.299H260.184C260.352 327.961 260.603 327.693 260.939 327.494C261.274 327.292 261.676 327.191 262.145 327.191C262.73 327.191 263.209 327.374 263.581 327.741C263.953 328.104 264.139 328.671 264.139 329.441V333.822H263.133V329.441C263.133 328.958 263.001 328.613 262.737 328.406C262.473 328.198 262.162 328.095 261.804 328.095C261.344 328.095 260.987 328.234 260.734 328.512C260.481 328.788 260.355 329.137 260.355 329.56V333.822H259.332V329.339C259.332 328.967 259.211 328.667 258.97 328.44C258.728 328.21 258.417 328.095 258.037 328.095C257.775 328.095 257.531 328.164 257.304 328.303C257.079 328.443 256.897 328.636 256.758 328.883C256.622 329.127 256.554 329.41 256.554 329.731V333.822H255.548Z" fill="black"/>
<path d="M223.84 331.822H222.783C222.721 331.518 222.611 331.251 222.455 331.021C222.302 330.791 222.114 330.597 221.893 330.441C221.674 330.282 221.431 330.163 221.164 330.083C220.897 330.004 220.618 329.964 220.329 329.964C219.8 329.964 219.321 330.097 218.893 330.364C218.466 330.631 218.127 331.025 217.874 331.545C217.624 332.065 217.499 332.702 217.499 333.458C217.499 334.214 217.624 334.852 217.874 335.372C218.127 335.891 218.466 336.285 218.893 336.552C219.321 336.819 219.8 336.952 220.329 336.952C220.618 336.952 220.897 336.913 221.164 336.833C221.431 336.754 221.674 336.636 221.893 336.479C222.114 336.32 222.302 336.126 222.455 335.896C222.611 335.663 222.721 335.396 222.783 335.095H223.84C223.76 335.541 223.616 335.94 223.405 336.292C223.195 336.644 222.934 336.944 222.621 337.191C222.309 337.435 221.958 337.622 221.569 337.749C221.182 337.877 220.769 337.941 220.329 337.941C219.584 337.941 218.922 337.759 218.343 337.396C217.763 337.032 217.307 336.515 216.975 335.845C216.643 335.174 216.476 334.379 216.476 333.458C216.476 332.538 216.643 331.742 216.975 331.072C217.307 330.401 217.763 329.884 218.343 329.521C218.922 329.157 219.584 328.975 220.329 328.975C220.769 328.975 221.182 329.039 221.569 329.167C221.958 329.295 222.309 329.482 222.621 329.729C222.934 329.974 223.195 330.272 223.405 330.624C223.616 330.974 223.76 331.373 223.84 331.822ZM228.07 337.958C227.48 337.958 226.961 337.818 226.515 337.536C226.072 337.255 225.725 336.862 225.475 336.356C225.228 335.85 225.105 335.259 225.105 334.583C225.105 333.901 225.228 333.306 225.475 332.798C225.725 332.289 226.072 331.894 226.515 331.613C226.961 331.332 227.48 331.191 228.07 331.191C228.661 331.191 229.178 331.332 229.622 331.613C230.068 331.894 230.414 332.289 230.661 332.798C230.911 333.306 231.036 333.901 231.036 334.583C231.036 335.259 230.911 335.85 230.661 336.356C230.414 336.862 230.068 337.255 229.622 337.536C229.178 337.818 228.661 337.958 228.07 337.958ZM228.07 337.055C228.519 337.055 228.889 336.94 229.178 336.71C229.468 336.479 229.683 336.177 229.822 335.802C229.961 335.427 230.031 335.021 230.031 334.583C230.031 334.146 229.961 333.738 229.822 333.36C229.683 332.982 229.468 332.677 229.178 332.444C228.889 332.211 228.519 332.095 228.07 332.095C227.622 332.095 227.252 332.211 226.962 332.444C226.673 332.677 226.458 332.982 226.319 333.36C226.18 333.738 226.11 334.146 226.11 334.583C226.11 335.021 226.18 335.427 226.319 335.802C226.458 336.177 226.673 336.479 226.962 336.71C227.252 336.94 227.622 337.055 228.07 337.055ZM233.577 329.095V337.822H232.571V329.095H233.577ZM238.163 337.958C237.533 337.958 236.989 337.819 236.531 337.541C236.077 337.259 235.726 336.867 235.479 336.364C235.234 335.859 235.112 335.271 235.112 334.6C235.112 333.93 235.234 333.339 235.479 332.827C235.726 332.313 236.07 331.913 236.51 331.626C236.953 331.336 237.47 331.191 238.061 331.191C238.402 331.191 238.739 331.248 239.071 331.362C239.404 331.475 239.706 331.66 239.979 331.916C240.252 332.168 240.469 332.504 240.631 332.921C240.793 333.339 240.874 333.853 240.874 334.464V334.89H235.828V334.021H239.851C239.851 333.651 239.777 333.322 239.629 333.032C239.484 332.742 239.277 332.514 239.007 332.346C238.74 332.178 238.425 332.095 238.061 332.095C237.661 332.095 237.314 332.194 237.021 332.393C236.732 332.589 236.509 332.845 236.352 333.16C236.196 333.475 236.118 333.813 236.118 334.174V334.754C236.118 335.248 236.203 335.667 236.374 336.011C236.547 336.352 236.787 336.612 237.094 336.791C237.401 336.967 237.757 337.055 238.163 337.055C238.428 337.055 238.666 337.018 238.879 336.944C239.095 336.867 239.281 336.754 239.438 336.603C239.594 336.45 239.715 336.259 239.8 336.032L240.771 336.305C240.669 336.634 240.497 336.924 240.256 337.174C240.014 337.421 239.716 337.614 239.361 337.754C239.006 337.89 238.607 337.958 238.163 337.958ZM249.256 329.095H250.313V335.333C250.313 335.89 250.21 336.363 250.006 336.752C249.801 337.141 249.513 337.437 249.141 337.639C248.769 337.84 248.33 337.941 247.824 337.941C247.347 337.941 246.922 337.854 246.55 337.681C246.178 337.505 245.885 337.255 245.672 336.931C245.459 336.607 245.352 336.222 245.352 335.776H246.392C246.392 336.024 246.453 336.239 246.575 336.424C246.7 336.606 246.871 336.748 247.087 336.85C247.303 336.952 247.548 337.004 247.824 337.004C248.128 337.004 248.386 336.94 248.6 336.812C248.813 336.684 248.975 336.497 249.085 336.249C249.199 335.999 249.256 335.694 249.256 335.333V329.095ZM254.953 337.958C254.362 337.958 253.844 337.818 253.398 337.536C252.955 337.255 252.608 336.862 252.358 336.356C252.111 335.85 251.987 335.259 251.987 334.583C251.987 333.901 252.111 333.306 252.358 332.798C252.608 332.289 252.955 331.894 253.398 331.613C253.844 331.332 254.362 331.191 254.953 331.191C255.544 331.191 256.061 331.332 256.504 331.613C256.95 331.894 257.297 332.289 257.544 332.798C257.794 333.306 257.919 333.901 257.919 334.583C257.919 335.259 257.794 335.85 257.544 336.356C257.297 336.862 256.95 337.255 256.504 337.536C256.061 337.818 255.544 337.958 254.953 337.958ZM254.953 337.055C255.402 337.055 255.771 336.94 256.061 336.71C256.351 336.479 256.565 336.177 256.705 335.802C256.844 335.427 256.913 335.021 256.913 334.583C256.913 334.146 256.844 333.738 256.705 333.36C256.565 332.982 256.351 332.677 256.061 332.444C255.771 332.211 255.402 332.095 254.953 332.095C254.504 332.095 254.135 332.211 253.845 332.444C253.556 332.677 253.341 332.982 253.202 333.36C253.063 333.738 252.993 334.146 252.993 334.583C252.993 335.021 253.063 335.427 253.202 335.802C253.341 336.177 253.556 336.479 253.845 336.71C254.135 336.94 254.504 337.055 254.953 337.055ZM260.46 333.884V337.822H259.454V329.095H260.46V332.299H260.545C260.699 331.961 260.929 331.693 261.236 331.494C261.545 331.292 261.957 331.191 262.471 331.191C262.917 331.191 263.308 331.281 263.643 331.46C263.978 331.636 264.238 331.907 264.423 332.274C264.611 332.637 264.704 333.1 264.704 333.663V337.822H263.699V333.731C263.699 333.211 263.564 332.809 263.294 332.525C263.027 332.238 262.656 332.095 262.182 332.095C261.852 332.095 261.557 332.164 261.295 332.303C261.037 332.443 260.832 332.646 260.682 332.913C260.534 333.18 260.46 333.504 260.46 333.884ZM267.55 333.884V337.822H266.544V331.276H267.516V332.299H267.601C267.754 331.967 267.987 331.7 268.3 331.498C268.612 331.293 269.016 331.191 269.51 331.191C269.953 331.191 270.341 331.282 270.673 331.464C271.006 331.643 271.264 331.916 271.449 332.282C271.634 332.646 271.726 333.106 271.726 333.663V337.822H270.72V333.731C270.72 333.217 270.587 332.816 270.32 332.529C270.053 332.239 269.686 332.095 269.22 332.095C268.899 332.095 268.612 332.164 268.359 332.303C268.109 332.443 267.912 332.646 267.767 332.913C267.622 333.18 267.55 333.504 267.55 333.884ZM278.2 332.742L277.297 332.998C277.24 332.847 277.156 332.701 277.045 332.559C276.937 332.414 276.79 332.295 276.602 332.201C276.415 332.107 276.174 332.06 275.882 332.06C275.481 332.06 275.147 332.153 274.88 332.337C274.616 332.519 274.484 332.751 274.484 333.032C274.484 333.282 274.575 333.479 274.757 333.624C274.939 333.769 275.223 333.89 275.609 333.987L276.581 334.225C277.166 334.367 277.602 334.585 277.889 334.877C278.176 335.167 278.319 335.541 278.319 335.998C278.319 336.373 278.211 336.708 277.995 337.004C277.782 337.299 277.484 337.532 277.101 337.702C276.717 337.873 276.271 337.958 275.763 337.958C275.095 337.958 274.542 337.813 274.105 337.524C273.667 337.234 273.39 336.81 273.274 336.254L274.228 336.015C274.319 336.367 274.491 336.631 274.744 336.808C275 336.984 275.334 337.072 275.745 337.072C276.214 337.072 276.586 336.972 276.862 336.774C277.14 336.572 277.28 336.33 277.28 336.049C277.28 335.822 277.2 335.631 277.041 335.478C276.882 335.322 276.638 335.205 276.308 335.129L275.217 334.873C274.618 334.731 274.177 334.511 273.896 334.212C273.618 333.911 273.478 333.535 273.478 333.083C273.478 332.714 273.582 332.387 273.79 332.103C274 331.819 274.285 331.596 274.646 331.434C275.01 331.272 275.422 331.191 275.882 331.191C276.53 331.191 277.038 331.333 277.407 331.617C277.78 331.901 278.044 332.276 278.2 332.742ZM282.492 337.958C281.901 337.958 281.383 337.818 280.937 337.536C280.494 337.255 280.147 336.862 279.897 336.356C279.65 335.85 279.526 335.259 279.526 334.583C279.526 333.901 279.65 333.306 279.897 332.798C280.147 332.289 280.494 331.894 280.937 331.613C281.383 331.332 281.901 331.191 282.492 331.191C283.083 331.191 283.6 331.332 284.043 331.613C284.489 331.894 284.836 332.289 285.083 332.798C285.333 333.306 285.458 333.901 285.458 334.583C285.458 335.259 285.333 335.85 285.083 336.356C284.836 336.862 284.489 337.255 284.043 337.536C283.6 337.818 283.083 337.958 282.492 337.958ZM282.492 337.055C282.941 337.055 283.31 336.94 283.6 336.71C283.89 336.479 284.105 336.177 284.244 335.802C284.383 335.427 284.453 335.021 284.453 334.583C284.453 334.146 284.383 333.738 284.244 333.36C284.105 332.982 283.89 332.677 283.6 332.444C283.31 332.211 282.941 332.095 282.492 332.095C282.043 332.095 281.674 332.211 281.384 332.444C281.095 332.677 280.88 332.982 280.741 333.36C280.602 333.738 280.532 334.146 280.532 334.583C280.532 335.021 280.602 335.427 280.741 335.802C280.88 336.177 281.095 336.479 281.384 336.71C281.674 336.94 282.043 337.055 282.492 337.055ZM287.999 333.884V337.822H286.993V331.276H287.965V332.299H288.05C288.204 331.967 288.437 331.7 288.749 331.498C289.062 331.293 289.465 331.191 289.959 331.191C290.402 331.191 290.79 331.282 291.123 331.464C291.455 331.643 291.714 331.916 291.898 332.282C292.083 332.646 292.175 333.106 292.175 333.663V337.822H291.169V333.731C291.169 333.217 291.036 332.816 290.769 332.529C290.502 332.239 290.135 332.095 289.669 332.095C289.348 332.095 289.062 332.164 288.809 332.303C288.559 332.443 288.361 332.646 288.216 332.913C288.071 333.18 287.999 333.504 287.999 333.884Z" fill="#7A00B4"/>
</g>
<defs>
<clipPath id="clip0_7_22">
<rect width="680.8" height="384.3" fill="white"/>
</clipPath>
</defs>
</svg>

<?xml version="1.0" encoding="utf-8"?>
<!-- Generator: Adobe Illustrator 25.2.1, SVG Export Plug-In . SVG Version: 6.00 Build 0)  -->
<svg version="1.1" id="Layer_1" xmlns="http://www.w3.org/2000/svg" xmlns:xlink="http://www.w3.org/1999/xlink" x="0px" y="0px"
	 viewBox="0 0 681 385" style="enable-background:new 0 0 681 385;" xml:space="preserve">
<style type="text/css">
	.st0{fill:none;}
	.st1{fill:#010102;}
	.st2{fill:#83868C;}
	.st3{font-family:'Audiowide-Regular';}
	.st4{font-size:33.504px;}
	.st5{font-size:20.031px;}
</style>
<g>
	<rect class="st0" width="680.8" height="384.3"/>
	<path class="st1" d="M588.8,198.9c-2.3-44.4-6.4-88.8-10.3-133C575.1,30,546.4,3.2,511.6,2.3c-15.9-0.4-31.7-0.8-47.6-1.1H218
		c-16,0.3-32.1,0.6-48.1,1c-3.5,0.1-7,0.2-10.5,0.9c-33.2,6.5-55.6,33.1-58.1,67.9c-2.6,35.4-5.8,70.7-8.3,106.1
		c-3.1,43.5-4.3,87-0.3,130.5c0.8,9,1.9,18,3.4,26.8c3.2,20,16.6,32.3,32.7,42.1c1.4,0.8,2.8,1.7,4.2,2.4h415.5
		c5.7-3.7,11.2-7.8,16.5-12.2c10.7-9.1,18-20.3,19.8-34.6c2-15.5,4-31,4.7-46.6C590.7,256.6,590.3,227.8,588.8,198.9z M534.4,293.2
		c0,7.6,0,7.6-7.6,7.6H149.5c-8.1,0-8.1,0-8.1-8.3v-242c0-12,0-12,12.2-12h184.3c63.1,0,126.2,0,189.3-0.1c7.3,0,7.3,0,7.3,7.3
		L534.4,293.2L534.4,293.2z"/>
	<path class="st2" d="M42.2,100c3.9-0.2,7.4,0.4,11,1.1c2,0.3,2.8,1.3,2.9,3.4c0.2,7.2,0.7,14.5,0.4,21.7c-0.1,2.4,0.8,3,3.1,3
		c7.2-0.1,14.5-0.1,21.7,0.4c1.6,0.1,2.6,0.5,3,2.2c1.9,7.4,1.4,14.7-0.3,22c-0.3,1.5-1.5,1.8-2.8,1.8c-7.2-0.3-14.5,0.5-21.7,0.5
		c-2.3,0-2.9,0.8-3.1,3.1c-0.6,7.1,0,14.3-0.9,21.4c-0.1,1.2-0.3,2.2-1.6,2.7c-7,3-14,3.5-21.1,0.5c-1.9-0.8-2.7-2-2.7-4
		c-0.1-6.9-0.4-13.8-0.5-20.6c0-2.4-0.7-3.5-3.3-3.5c-6.8,0.2-13.6-0.1-20.4-0.5c-1.9-0.1-3.1-0.7-3.8-2.5c-2.3-6.4-3-12.8-0.4-19.3
		c0.7-1.9,1.7-3.1,4-3.2c6.9-0.2,13.7-0.7,20.6-0.8c2.4-0.1,3.3-0.8,3.2-3.3c-0.1-6.8,0-13.6,0.1-20.4c0-3.7,0.4-4.2,4.1-4.9
		C36.6,100.1,39.5,99.7,42.2,100z"/>
	<path class="st2" d="M616.7,152.2c9.4,0,17,7.4,17.1,16.8c0.1,9.3-7.6,16.9-16.8,16.9c-9.6,0-17.2-7.5-17.2-17.1
		C599.7,159.6,607.2,152.2,616.7,152.2z"/>
	<path class="st2" d="M659.8,165.6c-9.4,0-17-7.5-17-16.8c0-9.4,7.5-16.9,16.9-16.9c9.5,0,17.1,7.6,17.1,16.9
		C676.6,158,668.9,165.6,659.8,165.6z"/>
	<path class="st2" d="M70.1,255.9c4.4-0.1,7.6,3,7.7,7.3c0,4.2-3.1,7.5-7.2,7.5c-4.4,0-7.7-3-7.7-7.2
		C62.7,259.1,65.7,255.9,70.1,255.9z"/>
	<path class="st2" d="M69.5,278c4.7,0.2,7.7,3.2,7.6,7.5c-0.1,4-3.7,7.5-7.6,7.3c-4.1-0.1-7.5-3.8-7.3-8.1
		C62.3,280.7,65.3,277.9,69.5,278z"/>
	<path class="st1" d="M340.2,373.3c-113.4,0-205.5,2.4-207.4,5.4h0.1c0.1,0.1,0.3,0.1,0.4,0.2c0.6,0.2,1.2,0.4,1.8,0.6
		c15.3,2.6,101.3,4.7,205,4.7c114.6,0,207.4-2.5,207.4-5.5S454.8,373.3,340.2,373.3z"/>
	<g>
		<text transform="matrix(1 0 0 1 228.7644 357.5449)" class="st2 st3 st4">COLE</text>
		<text transform="matrix(1 0 0 1 336.5196 351.7292)" class="st2 st3 st5">JOHNSON</text>
	</g>
</g>
</svg>
